round/svg/live_help.svg

<svg xmlns="http://www.w3.org/2000/svg" width="24" height="24"><path fill="none" d="M0 0h24v24H0V0z"/><g><path d="M19 2H5a2 2 0 0 0-2 2v14c0 1.1.9 2 2 2h4l2.29 2.29c.39.39 1.02.39 1.41 0L15 20h4c1.1 0 2-.9 2-2V4c0-1.1-.9-2-2-2zm-6 16h-2v-2h2v2zm2.07-7.75l-.9.92c-.58.59-.99 1.1-1.12 2.06-.06.43-.41.76-.85.76h-.31a.86.86 0 0 1-.85-.98c.11-.91.53-1.72 1.14-2.34l1.24-1.26c.36-.36.58-.86.58-1.41 0-1.1-.9-2-2-2-.87 0-1.62.57-1.89 1.35-.13.37-.44.64-.83.64h-.3c-.58 0-.98-.56-.82-1.12A4.002 4.002 0 0 1 16 8c0 .88-.36 1.68-.93 2.25z"/></g></svg>

<?xml version="1.0" encoding="utf-8"?>
<!-- Generator: Adobe Illustrator 19.1.0, SVG Export Plug-In . SVG Version: 6.00 Build 0)  -->
<svg version="1.1" xmlns="http://www.w3.org/2000/svg" xmlns:xlink="http://www.w3.org/1999/xlink" x="0px" y="0px" width="24px"
	 height="24px" viewBox="0 0 24 24" enable-background="new 0 0 24 24" xml:space="preserve">
<g id="Bounding_Boxes">
	<g id="ui_x5F_spec_x5F_header_copy_2">
	</g>
	<path fill="none" d="M0,0h24v24H0V0z"/>
</g>
<g id="Rounded_1_">
	<g id="ui_x5F_spec_x5F_header_copy_6">
	</g>
	<path d="M19,2H5C3.89,2,3,2.9,3,4v14c0,1.1,0.9,2,2,2h4l2.29,2.29c0.39,0.39,1.02,0.39,1.41,0L15,20h4c1.1,0,2-0.9,2-2V4
		C21,2.9,20.1,2,19,2z M13,18h-2v-2h2V18z M15.07,10.25l-0.9,0.92c-0.58,0.59-0.99,1.1-1.12,2.06l0,0
		c-0.06,0.43-0.41,0.76-0.85,0.76h-0.31c-0.52,0-0.92-0.46-0.85-0.98l0,0c0.11-0.91,0.53-1.72,1.14-2.34l1.24-1.26
		C13.78,9.05,14,8.55,14,8c0-1.1-0.9-2-2-2c-0.87,0-1.62,0.57-1.89,1.35l0,0C9.98,7.72,9.67,7.99,9.28,7.99H8.98
		C8.4,7.99,8,7.43,8.16,6.87l0,0C8.65,5.21,10.18,4,12,4c2.21,0,4,1.79,4,4C16,8.88,15.64,9.68,15.07,10.25z"/>
</g>
</svg>
